svg/microsoft.svg

<svg xmlns="http://www.w3.org/2000/svg" viewBox="0 0 24 24"><path d="M2 3h9v9H2zm9 19H2v-9h9zM21 3v9h-9V3zm0 19h-9v-9h9z"/></svg>

<?xml version="1.0" encoding="UTF-8"?><!DOCTYPE svg PUBLIC "-//W3C//DTD SVG 1.1//EN" "http://www.w3.org/Graphics/SVG/1.1/DTD/svg11.dtd"><svg xmlns="http://www.w3.org/2000/svg" xmlns:xlink="http://www.w3.org/1999/xlink" version="1.1" id="mdi-microsoft" width="24" height="24" viewBox="0 0 24 24"><path d="M2,3H11V12H2V3M11,22H2V13H11V22M21,3V12H12V3H21M21,22H12V13H21V22Z" /></svg>
